assets/icons/qvision/art_track.svg

<svg xmlns="http://www.w3.org/2000/svg" height="24" viewBox="0 0 24 24" width="24"><path d="M0 0h24v24H0z" fill="none"/><path d="M22 13h-8v-2h8v2zm0-6h-8v2h8V7zm-8 10h8v-2h-8v2zm-2-8v6c0 1.1-.9 2-2 2H4c-1.1 0-2-.9-2-2V9c0-1.1.9-2 2-2h6c1.1 0 2 .9 2 2zm-1.5 6l-2.25-3-1.75 2.26-1.25-1.51L3.5 15h7z"/></svg>

<svg width="24" height="24" viewBox="0 0 24 24" fill="none" xmlns="http://www.w3.org/2000/svg">
<g clip-path="url(#clip0_147_1382)">
<path d="M22 13H14V11H22V13ZM22 7H14V9H22V7ZM14 17H22V15H14V17ZM12 9V15C12 16.1 11.1 17 10 17H4C2.9 17 2 16.1 2 15V9C2 7.9 2.9 7 4 7H10C11.1 7 12 7.9 12 9ZM10.5 15L8.25 12L6.5 14.26L5.25 12.75L3.5 15H10.5Z" fill="#323232"/>
</g>
<defs>
<clipPath id="clip0_147_1382">
<rect width="24" height="24" fill="white"/>
</clipPath>
</defs>
</svg>
